dist/img/logo.svg

<svg width="50" height="14" viewBox="0 0 50 14" fill="none" xmlns="http://www.w3.org/2000/svg">
<path d="M2.024 11.416H7.46V13H0.35V0.399999H2.024V11.416ZM18.7537 11.326C17.4937 12.598 15.9517 13.234 14.1277 13.234C12.3037 13.234 10.7617 12.598 9.50173 11.326C8.24173 10.054 7.61173 8.512 7.61173 6.7C7.61173 4.876 8.24173 3.334 9.50173 2.074C10.7617 0.801999 12.3037 0.165999 14.1277 0.165999C15.9517 0.165999 17.4937 0.801999 18.7537 2.074C20.0257 3.334 20.6617 4.876 20.6617 6.7C20.6617 8.512 20.0257 10.054 18.7537 11.326ZM10.6537 10.192C11.5897 11.128 12.7477 11.596 14.1277 11.596C15.5077 11.596 16.6597 11.128 17.5837 10.192C18.5197 9.244 18.9877 8.08 18.9877 6.7C18.9877 5.308 18.5197 4.144 17.5837 3.208C16.6597 2.26 15.5077 1.786 14.1277 1.786C12.7477 1.786 11.5897 2.26 10.6537 3.208C9.72973 4.144 9.26773 5.308 9.26773 6.7C9.26773 8.08 9.72973 9.244 10.6537 10.192ZM34.8242 6.754V7.51C34.8242 9.154 34.2602 10.522 33.1322 11.614C32.0042 12.694 30.5102 13.234 28.6502 13.234C26.7302 13.234 25.1402 12.604 23.8802 11.344C22.6322 10.072 22.0082 8.524 22.0082 6.7C22.0082 4.876 22.6322 3.334 23.8802 2.074C25.1402 0.801999 26.7182 0.165999 28.6142 0.165999C29.7782 0.165999 30.8462 0.447999 31.8182 1.012C32.7902 1.564 33.5402 2.296 34.0682 3.208L32.6282 4.054C32.2682 3.37 31.7222 2.824 30.9902 2.416C30.2702 1.996 29.4722 1.786 28.5962 1.786C27.1562 1.786 25.9742 2.26 25.0502 3.208C24.1262 4.144 23.6642 5.308 23.6642 6.7C23.6642 8.092 24.1262 9.256 25.0502 10.192C25.9862 11.128 27.1922 11.596 28.6682 11.596C29.9282 11.596 30.9482 11.29 31.7282 10.678C32.5082 10.054 32.9822 9.25 33.1502 8.266H28.5242V6.754H34.8242ZM47.3358 11.326C46.0758 12.598 44.5338 13.234 42.7098 13.234C40.8858 13.234 39.3438 12.598 38.0838 11.326C36.8238 10.054 36.1938 8.512 36.1938 6.7C36.1938 4.876 36.8238 3.334 38.0838 2.074C39.3438 0.801999 40.8858 0.165999 42.7098 0.165999C44.5338 0.165999 46.0758 0.801999 47.3358 2.074C48.6078 3.334 49.2438 4.876 49.2438 6.7C49.2438 8.512 48.6078 10.054 47.3358 11.326ZM39.2358 10.192C40.1718 11.128 41.3298 11.596 42.7098 11.596C44.0898 11.596 45.2418 11.128 46.1658 10.192C47.1018 9.244 47.5698 8.08 47.5698 6.7C47.5698 5.308 47.1018 4.144 46.1658 3.208C45.2418 2.26 44.0898 1.786 42.7098 1.786C41.3298 1.786 40.1718 2.26 39.2358 3.208C38.3118 4.144 37.8498 5.308 37.8498 6.7C37.8498 8.08 38.3118 9.244 39.2358 10.192Z" fill="#ADADAD"/>
</svg>

<svg width="50" height="14" fill="none" xmlns="http://www.w3.org/2000/svg"><path d="M2.024 11.416H7.46V13H.35V.4h1.674v11.016zm16.73-.09c-1.26 1.272-2.802 1.908-4.626 1.908-1.824 0-3.366-.636-4.626-1.908-1.26-1.272-1.89-2.814-1.89-4.626 0-1.824.63-3.366 1.89-4.626C10.762.802 12.304.166 14.128.166c1.824 0 3.366.636 4.626 1.908 1.272 1.26 1.908 2.802 1.908 4.626 0 1.812-.636 3.354-1.908 4.626zm-8.1-1.134c.936.936 2.094 1.404 3.474 1.404 1.38 0 2.532-.468 3.456-1.404.936-.948 1.404-2.112 1.404-3.492 0-1.392-.468-2.556-1.404-3.492-.924-.948-2.076-1.422-3.456-1.422s-2.538.474-3.474 1.422c-.924.936-1.386 2.1-1.386 3.492 0 1.38.462 2.544 1.386 3.492zm24.17-3.438v.756c0 1.644-.564 3.012-1.692 4.104-1.128 1.08-2.622 1.62-4.482 1.62-1.92 0-3.51-.63-4.77-1.89-1.248-1.272-1.872-2.82-1.872-4.644 0-1.824.624-3.366 1.872-4.626C25.14.802 26.718.166 28.614.166a6.27 6.27 0 013.204.846c.972.552 1.722 1.284 2.25 2.196l-1.44.846c-.36-.684-.906-1.23-1.638-1.638a4.664 4.664 0 00-2.394-.63c-1.44 0-2.622.474-3.546 1.422-.924.936-1.386 2.1-1.386 3.492s.462 2.556 1.386 3.492c.936.936 2.142 1.404 3.618 1.404 1.26 0 2.28-.306 3.06-.918a3.814 3.814 0 001.422-2.412h-4.626V6.754h6.3zm12.512 4.572c-1.26 1.272-2.802 1.908-4.626 1.908-1.824 0-3.366-.636-4.626-1.908-1.26-1.272-1.89-2.814-1.89-4.626 0-1.824.63-3.366 1.89-4.626C39.344.802 40.886.166 42.71.166c1.824 0 3.366.636 4.626 1.908 1.272 1.26 1.908 2.802 1.908 4.626 0 1.812-.636 3.354-1.908 4.626zm-8.1-1.134c.936.936 2.094 1.404 3.474 1.404 1.38 0 2.532-.468 3.456-1.404.936-.948 1.404-2.112 1.404-3.492 0-1.392-.468-2.556-1.404-3.492-.924-.948-2.076-1.422-3.456-1.422s-2.538.474-3.474 1.422c-.924.936-1.386 2.1-1.386 3.492 0 1.38.462 2.544 1.386 3.492z" fill="#ADADAD"/></svg>
